X: 2009
T: Yâ Resûlallah Cemâlin...
C: ?
O: Turkey
F: http://compmusic.upf.edu/node/140
N: pencgah--tevsih--sofyan--ya_resulallah--
N: makam= pencgah
N: form= tevsih
N: usul= sofyan = 4/4
M: 4/4
L: 1/16
K: C _1/4B ^f  
Q: 1/4=60
%%MIDI tuningsystem comma53
d2e2 d2^c2 =B2c2 d4  | e3d ^c4 d3c =B4  | \
w:  Yâ  *  re *  sûl_ *  Al  |  lah  *  *  *  *  ce  | 
A2^c2 =B2A2 G4 d2d2  | d2e2 d2^c2 =B2c2 d4  | 
w:  mâ *  *  *  li *  ni    |  Yâ  *  re *  sûl_ *  Al  | 
e3d ^c4 d2c2 =B4  | A2^c2 =B2A2 G4 A2_1/4B2  | \
w:  lah  *  *  *  *  ce  |  mâ *  *  *  li *  ni    | 
G4 A2B2 G2d2 d4  | z2e2 d2c2 d4 e2=f2  | 
w:  Ke şe *  fed *  dü  |  câ  *  *  *  de  | 
g2=f2 e2d2 e2d2 c2B2  | ABA2 BcB2 cdc2 d4  | \
w:  ğil  *  *  *  mi    |  Ke *  *  şe *  *  fed *  *  dü  | 
z2e2 d2c2 B2{d}cB A4  | 
w:  câ  *  *  *  *  *  *  de  | 
A2c2 B2A2 G6z2  | d2e2 d2^c2 =B2c2 d4  | \
w:  ğil  *  *  *  mi    |  Yâ  *  re *  sûl_ *  Al  | 
e3d ^c4 d3c =B4  | A2^c2 =B2A2 G4 d2d2  | 
w:  lah  *  *  *  *  ce  |  mâ *  *  *  li *  ni    | 
d2e2 d2^c2 =B2c2 d4  | e3d ^c4 d2c2 =B4  | \
w:  Yâ  *  re *  sûl_ *  Al  |  lah  *  *  *  *  ce  | 
A2^c2 =B2A2 G4 A2_1/4B2  | G4 A2B2 G2d2 d4  | 
w:  mâ *  *  *  li *  ni    |  Ke şe *  fed *  dü  | 
z2e2 d2c2 d4 e2=f2  | g2=f2 e2d2 e2d2 c2B2  | \
w:  câ  *  *  *  de  |  ğil  *  *  *  mi    | 
ABA2 BcB2 cdc2 d4  | 
w:  Ke *  *  şe *  *  fed *  *  dü  | 
z2e2 d2c2 B2{d}cB A4  | A2c2 B2A2 G6z2  | \
w:  câ  *  *  *  *  *  *  de  |  ğil  *  *  *  mi    | 
d2e2 d2^c2 =B2c2 d4  | 
w:  İ *  ki  *  ber *  gü  | 
e3d ^c4 d3c =B4  | A2^c2 =B2A2 G4 d2d2  | \
w:  zî *  *  *  *  de   |  a *  *  *  dı *  nı    | 
d2e2 d2^c2 =B2c2 d4  | e3d ^c4 d2c2 =B4  | 
w:  İ *  ki  *  ber *  gü  |  zî *  *  *  *  de   | 
A2^c2 =B2A2 G4 A2_1/4B2  | G4 A2B2 G2d2 d4  | \
w:  a *  *  *  dı *  nı    |  Se nin  *  ey  *  ha  | 
z2e2 d2c2 d4 e2=f2  | g2=f2 e2d2 e2d2 c2B2  | 
w:  bîb_ *  *  *  i   |  rah *  *  *  mân    | 
ABA2 BcB2 cdc2 d4  | z2e2 d2^c2 =B2c2 d2e=f  | \
w:  Se *  *  nin  *  *  ey  *  *  ha  |  bîb_ *  *  *  *  i   | 
e2d2 ^c2ed d6z2  | 
w:  râ *  *  *  hı mân    | 
d2e2 d2^c2 =B2c2 d4  | e3d ^c4 d3c =B4  | \
w:  İ *  ki  *  ber *  gü  |  zî *  *  *  *  de   | 
A2^c2 =B2A2 G4 d2d2  | d2e2 d2^c2 =B2c2 d4  | 
w:  a *  *  *  dı *  nı    |  İ *  ki  *  ber *  gü  | 
e3d ^c4 d2c2 =B4  | A2^c2 =B2A2 G4 A2_1/4B2  | \
w:  zî *  *  *  *  de   |  a *  *  *  dı *  nı    | 
G4 A2B2 G2d2 d4  | z2e2 d2c2 d4 e2=f2  | 
w:  Se nin  *  ey  *  ha  |  bîb_ *  *  *  i   | 
g2=f2 e2d2 e2d2 c2B2  | ABA2 BcB2 cdc2 d4  | \
w:  rah *  *  *  mân    |  Se *  *  nin  *  *  ey  *  *  ha  | 
z2e2 d2c2 B2{d}cB A4  | 
w:  fa  *  *  *  *  *  *  de  | 
A2c2 B2A2 G6z2  | |


